packages/foundations/assets/icons/functional/images/editing/pin_12.svg

<svg width="14" height="14" viewBox="0 0 14 14" fill="none" xmlns="http://www.w3.org/2000/svg">
<g clip-path="url(#clip0_2622_104)">
<path fill-rule="evenodd" clip-rule="evenodd" d="M8.19822 2.00146L11.9884 5.74546C12.1033 5.85796 12.1708 6.01013 12.1771 6.17079C12.1834 6.33145 12.1281 6.48845 12.0224 6.60963C11.9167 6.7308 11.7687 6.80698 11.6087 6.82257C11.4486 6.83815 11.2887 6.79196 11.1616 6.69346L10.8454 6.38746L9.35742 7.86106C9.50022 8.09386 9.59742 8.34106 9.64722 8.59966C9.81642 9.46966 9.46602 10.3229 8.81082 11.1377C8.56326 11.4497 8.28441 11.7356 7.97862 11.9909C7.86864 12.0799 7.73188 12.1293 7.59038 12.1312C7.44888 12.133 7.31088 12.0872 7.19862 12.0011L5.01702 9.84886L2.93622 11.9093C2.82232 12.0219 2.66978 12.087 2.50963 12.0912C2.34947 12.0954 2.19374 12.0384 2.07411 11.9318C1.95448 11.8253 1.87994 11.6771 1.86565 11.5176C1.85137 11.358 1.89841 11.199 1.99722 11.0729L4.12122 8.96206L2.00922 6.87226C1.89732 6.7615 1.83095 6.61286 1.82318 6.45561C1.81541 6.29837 1.86679 6.14391 1.96722 6.02266C2.14422 5.80846 2.44122 5.50426 2.82882 5.19886C3.64962 4.55206 4.50762 4.20706 5.37942 4.37266C5.64342 4.42306 5.89542 4.52026 6.13242 4.66426L7.61862 3.19366L7.37142 2.94886C7.25655 2.83635 7.18904 2.68418 7.18273 2.52352C7.17641 2.36286 7.23177 2.20586 7.33745 2.08468C7.44313 1.96351 7.59115 1.88733 7.75118 1.87174C7.91121 1.85616 8.07114 1.90295 8.19822 2.00146ZM8.51442 4.07986L6.62622 5.94886C6.50782 6.0647 6.34876 6.12956 6.18312 6.12956C6.01747 6.12956 5.85842 6.0647 5.74002 5.94886C5.54382 5.75506 5.35002 5.64046 5.14422 5.61046C4.64442 5.53786 4.04322 5.80666 3.34062 6.41686L7.58982 10.6223C8.20602 9.96226 8.47962 9.36826 8.41062 8.84026C8.38782 8.66806 8.29482 8.50426 8.14902 8.33926C8.05782 8.26186 7.64742 7.86106 8.07102 7.36126C8.69511 6.73913 9.32131 6.11912 9.94962 5.50126L8.51442 4.07986Z" fill="#282D37"/>
</g>
<defs>
<clipPath id="clip0_2622_104">
<rect width="14" height="14" fill="white"/>
</clipPath>
</defs>
</svg>

<svg xmlns="http://www.w3.org/2000/svg" width="14" height="14" fill="none"><g clip-path="url(#a)"><path fill="#282D37" fill-rule="evenodd" d="m8.198 2.001 3.79 3.744a.63.63 0 0 1-.826.948l-.317-.306-1.488 1.474q.215.35.29.739c.17.87-.181 1.723-.836 2.538a6 6 0 0 1-.832.853.63.63 0 0 1-.78.01L5.017 9.85l-2.08 2.06a.63.63 0 0 1-.94-.836l2.124-2.11-2.112-2.09a.63.63 0 0 1-.042-.85c.177-.215.474-.519.862-.824.82-.647 1.679-.992 2.55-.826q.397.075.753.291l1.487-1.47-.248-.245A.63.63 0 0 1 8.198 2m.316 2.079L6.626 5.949a.634.634 0 0 1-.886 0c-.196-.194-.39-.309-.596-.339q-.75-.108-1.803.807l4.249 4.205q.925-.99.82-1.782c-.022-.172-.115-.336-.261-.5-.091-.078-.502-.479-.078-.979q.936-.933 1.879-1.86z" clip-rule="evenodd"/></g><defs><clipPath id="a"><path fill="#fff" d="M0 0h14v14H0z"/></clipPath></defs></svg>
